X:68
T:RVW2/2/68 The Golden Glove
C:Mrs. Humphreys, Ingrave, Essex, 25 April 1904
L:1/8
Q:1/4=66
M:4/4
I:linebreak $
K:G
"^(Editorial suggestion)  " D2 | G2 EF D2 FG | A2 FG E2 (EF) | G2 AB c2 A(B/c/) | d2 Bc"^(a)" A4 |$ 
w: It's|of a young squi- ï¿½r in|Tam- worth we hear; he _|cour- ted a no- ble man's _|daugh- ter so fair,|
G2 AB c(c A)"^(b)"(B/c/) | d2 (Bc) A3"^(c)" F | G2 AD C2 D(E/F/) | G2 EF D2 ||$ D2 | G2 EF D2 FG | 
w: and to be mar- ried _ was _|their in- * tent; all|friends and re- la- tions they _|gave their con- sent.|||
A2 FG E2 EF | G2 AB c2 AB/c/ | d2 Bc"^(a) var." A3 F |$ G2 AB c(cA)"^(b) var."A | 
w: ||||
d2 (Bc) A2"^(c) var." GF | G2 AD C2 DE/F/ | G2 EF D2 |] 
w: |||



